svgs/thin/up-down-left-right.svg

<svg xmlns="http://www.w3.org/2000/svg" viewBox="0 0 512 512"><!--! Font Awesome Pro 6.0.0-alpha3 by @fontawesome - https://fontawesome.com License - https://fontawesome.com/license (Commercial License) --><path d="M505.6 240.3L421.3 154.5C416.8 150 411.4 148 405.1 148C394.8 148 384 156.9 384 170.3V248h-120V128h77.75c19.78 0 29.69-23.52 15.7-37.28l-85.75-84.32c-4.338-4.266-10.02-6.395-15.71-6.395s-11.36 2.129-15.7 6.395L154.5 90.72C140.6 104.5 150.5 128 170.2 128H248v120H128V170.3C128 156.9 117.2 148 106 148c-5.367 0-10.84 2.023-15.29 6.547L6.396 240.3C2.133 244.6 0 250.3 0 256s2.133 11.36 6.396 15.7l84.33 85.75C95.17 361.1 100.6 364 106 364C117.2 364 128 355.1 128 341.8V264h120V384H170.2c-19.78 0-29.69 23.52-15.7 37.28l85.75 84.32c4.338 4.266 10.02 6.4 15.7 6.4s11.37-2.135 15.7-6.4l85.75-84.32C371.4 407.5 361.5 384 341.8 384H264V264H384v77.75C384 355.1 394.8 364 405.1 364c5.365 0 10.83-2.023 15.28-6.547l84.33-85.75C509.9 267.4 512 261.7 512 256S509.9 244.6 505.6 240.3zM170.2 112c-3.705 0-5.219-2.352-5.793-3.75C163.8 106.7 163.5 104.3 165.8 102.1l85.75-84.33C253.1 16.23 255 16 256 16s2.887 .2344 4.482 1.805l85.75 84.33c2.25 2.211 1.955 4.547 1.312 6.117C346.1 109.6 345.5 112 341.8 112H170.2zM112 341.8C112 346.3 108.3 348 106 348c-1.439 0-2.707-.5781-3.877-1.766L17.81 260.5C16.24 258.9 16 256.1 16 256s.2363-2.883 1.805-4.484l84.33-85.75C103.3 164.6 104.6 164 106 164C108.3 164 112 165.7 112 170.3V341.8zM341.8 400c3.705 0 5.221 2.352 5.793 3.75c.6426 1.57 .9375 3.906-1.312 6.117l-85.75 84.33C258.9 495.8 256.1 496 256 496s-2.885-.2344-4.482-1.805l-85.75-84.33c-2.248-2.211-1.955-4.547-1.312-6.117C165 402.4 166.5 400 170.2 400H341.8zM494.2 260.5l-84.33 85.75C408.7 347.4 407.4 348 405.1 348C403.7 348 400 346.3 400 341.8v-171.5C400 165.7 403.7 164 405.1 164c1.438 0 2.707 .5781 3.875 1.766l84.32 85.75C495.8 253.1 496 255 496 256S495.8 258.9 494.2 260.5z"/></svg>

<svg xmlns="http://www.w3.org/2000/svg" viewBox="0 0 512 512"><!-- Font Awesome Pro 6.0.0-alpha2 by @fontawesome - https://fontawesome.com License - https://fontawesome.com/license (Commercial License) --><path d="M505.604 240.297L421.277 154.547C416.83 150.023 411.359 148 405.994 148C394.768 148 384 156.859 384 170.25V248H264V128H341.752C361.535 128 371.439 104.477 357.451 90.723L271.701 6.398C267.363 2.133 261.684 0 256 0S244.637 2.133 240.299 6.398L154.549 90.723C140.561 104.477 150.465 128 170.248 128H248V248H128V170.25C128 156.863 117.232 148 106.008 148C100.641 148 95.172 150.023 90.723 154.547L6.396 240.297C2.133 244.637 0 250.316 0 256S2.133 267.363 6.396 271.703L90.723 357.453C95.172 361.977 100.643 364 106.008 364C117.234 364 128 355.137 128 341.75V264H248V384H170.248C150.465 384 140.561 407.523 154.549 421.277L240.299 505.602C244.637 509.867 250.316 512 256 512S267.363 509.867 271.701 505.602L357.451 421.277C371.439 407.523 361.535 384 341.752 384H264V264H384V341.75C384 355.137 394.77 364 405.994 364C411.359 364 416.828 361.977 421.277 357.453L505.604 271.703C509.867 267.363 512 261.684 512 256S509.867 244.637 505.604 240.297ZM170.248 112C166.543 112 165.029 109.648 164.455 108.25C163.812 106.68 163.52 104.344 165.768 102.133L251.516 17.805C253.115 16.234 255.012 16 256 16S258.887 16.234 260.482 17.805L346.232 102.133C348.482 104.344 348.188 106.68 347.545 108.25C346.973 109.648 345.457 112 341.752 112H170.248ZM112 341.75C112 346.305 108.324 348 106.008 348C104.568 348 103.301 347.422 102.131 346.234L17.809 260.484C16.236 258.883 16 256.988 16 256S16.236 253.117 17.805 251.516L102.131 165.766C103.301 164.578 104.568 164 106.006 164C108.324 164 112 165.695 112 170.25V341.75ZM341.752 400C345.457 400 346.973 402.352 347.545 403.75C348.188 405.32 348.482 407.656 346.232 409.867L260.486 494.195C258.887 495.766 256.988 496 256 496S253.115 495.766 251.518 494.195L165.768 409.867C163.52 407.656 163.812 405.32 164.455 403.75C165.029 402.352 166.543 400 170.248 400H341.752ZM494.195 260.484L409.869 346.234C408.701 347.422 407.432 348 405.994 348C403.676 348 400 346.305 400 341.75V170.25C400 165.695 403.676 164 405.994 164C407.432 164 408.701 164.578 409.869 165.766L494.193 251.516C495.766 253.117 496 255.012 496 256S495.766 258.883 494.195 260.484Z"/></svg>
